X: 1
T: I'll Get Wedded in MY Auld Claes
O: Trad. melody from thesession.org
%R: jig
F: http://ancients.sudburymuster.org/mus/sng/pdf/weddedC0.pdf
Z: 2020 John Chambers <jc:trillian.mit.edu>
M: 6/8
L: 1/8
K: G
d |\
gfg dBG | BAG E2D | GAB BAG | GBe def |\
gfg dBG | BAG E2D | GBd DFA | BGG G2 :|
|: B |\
c2A F2D | G2B d2B | cec AFD | GBd gfa |\
gdB GBd | ecG EGc | dBG DFA | BGG G2 :|
|: d |\
dBd gbg | ece a2g | ~f3 def | gba gfe |\
dBd gbg | ece a2g | f2d cBA | BGG G2 :|
